X:82
T:Capt Mackintosh’s Fancy. JJo.082
T:Captain Mackintosh’s Fancy,aka. JJo.082
S:J.Jones MS,1801,N.Shrops.
A:N Shropshire
Z:Neil Brookes 2006
M:2/4
L:1/8
Q:1/4=140
K:C
G|c>dc>d|BGGG|c>dc>e|g3e|affd|geec|defd|cBAG|!
c>dc>d|BGGG|c>dc>e|g3e|affd|geec|fddB|c3::!
g>ag>a|fdde|f>gf>g|eccB|Ad/e/ fd|Be/f/ ge|af dc|cBAG|!
c>dc>d|BGGG|c>de>f|g3e|affd|geec|fdcB|c3:|

